X: 10
T: Katy Hill Outro, 8 bars
P: piffero primo a0213
O: arr Greg Bacon
%R: march
F: http://ancients.sudburymuster.org/mus/ssp/pdf/ashgroveF.pdf
Z: 2019 John Chambers <jc:trillian.mit.edu>
M: 2/4
L: 1/16
K: G
d2 |\
G2A2 B2d2 | g2(3(fgf) e2d2 | B2G2 d2G2  | ABAG TE2D2 |\
G2A2 B2d2 | g2(3(fgf) e2d2 | e2d2 e2Tf2 | g2z2 |]

% %sep 1 1 200
% %center - - - - - - - - - -
% Whatever we want at the bottom of each set belongs here.
